X:111
%%pagewidth 8in
T:Three merry men be we
M:C
L:1/8
K:Bb
%%score 1 2
V:1 clef-treble
V:2 clef-bass octave=-1
V:1
d2cdB2F2&D8|B2AB D2E2&D4D2C2|F2B>A (Bc)[Bd]2&D4F4|[FAc]6d2|
w:Three mer-ry men and three mer-ry men, And three mer-ry men* be we a,
V:2
[B,F]8|[B,F]8|F8&B,4D4|F4F,2z2|
V:1
c2cAF2F2&[FA]4x4|[Bf]2[Bf][Ad][Bd]2B2&F4F2F2|c2c2(cd)e2&[FB]4[FA]4|d6&[FB]6||
w:I in the wood, and thou on the ground, And Jack sleeps in* the tree.
V:2
F6E2|D2DCB,2D2|F4F,4|B,4B,,2||

